actions/24/image-straighten.svg

<?xml version="1.0" encoding="UTF-8" standalone="no"?>
<svg
   width="24"
   height="24"
   viewBox="0 0 24 24"
   version="1.1"
   id="svg7"
   sodipodi:docname="image-straighten.svg"
   inkscape:version="1.1.2 (0a00cf5339, 2022-02-04)"
   xmlns:inkscape="http://www.inkscape.org/namespaces/inkscape"
   xmlns:sodipodi="http://sodipodi.sourceforge.net/DTD/sodipodi-0.dtd"
   xmlns="http://www.w3.org/2000/svg"
   xmlns:svg="http://www.w3.org/2000/svg">
  <sodipodi:namedview
     id="namedview9"
     pagecolor="#000000"
     bordercolor="#666666"
     borderopacity="1.0"
     inkscape:pageshadow="2"
     inkscape:pageopacity="0"
     inkscape:pagecheckerboard="0"
     showgrid="false"
     inkscape:zoom="28.416667"
     inkscape:cx="11.982405"
     inkscape:cy="11.964809"
     inkscape:window-width="1596"
     inkscape:window-height="967"
     inkscape:window-x="0"
     inkscape:window-y="29"
     inkscape:window-maximized="1"
     inkscape:current-layer="svg7" />
  <defs
     id="defs3">
    <style
       id="current-color-scheme"
       type="text/css">
   .ColorScheme-Text { color:#eeeeec; } .ColorScheme-Highlight { color:#367bf0; } .ColorScheme-NeutralText { color:#ffcc44; } .ColorScheme-PositiveText { color:#3db47e; } .ColorScheme-NegativeText { color:#dd4747; }
  </style>
  </defs>
  <path
     style="fill:currentColor"
     class="ColorScheme-Text"
     d="m 13.029297,1.03125 c -0.095,8.9e-4 -0.15625,0.03125 -0.15625,0.03125 L 1.0625,3.125 C 0.0777,3.29865 0.25,4.28125 0.25,4.28125 L 0.71875,7 H 3.8125 L 4.6660653,5.5299708 5.3850437,5.4182399 v 0 L 7.375,7 h 2.3125 l 0.618092,-0.8312277 0.753632,-0.063353 v 0 L 12.34375,7 h 2.067478 l 0.429415,-0.5477446 v 0 L 14.03125,1.875 c -0.13023,-0.7386 -0.71488,-0.84642 -1,-0.84375 z M 1,8 V 9 H 2 V 8 Z M 3,8 V 9 H 4 V 8 Z M 5,8 V 9 H 6 V 8 Z M 7,8 V 9 H 8 V 8 Z m 2,0 v 1 h 1 V 8 Z m 2,0 v 1 h 1 V 8 Z m 2,0 v 1 h 1 V 8 Z m 2,0 v 1 h 1 V 8 Z M 1.7432765,10 1.327241,10.446654 1.96875,14.15625 c 0.17364,0.9848 1.15625,0.8125 1.15625,0.8125 L 14.935547,12.875 c 0,0 0.98614,-0.17149 0.8125,-1.15625 L 15.4375,10 h -2 l 0.1875,1.0625 -9.84375,1.75 -0.5,-2.8125 z"
     transform="translate(4,4)"
     id="path5"
     sodipodi:nodetypes="cccccccccccccccccccccccccccccccccccccccccccccccccccccccccccccccccccccccccc" />
</svg>

<svg xmlns="http://www.w3.org/2000/svg" width="24" height="24" viewBox="0 0 24 24">
 <defs>
  <style id="current-color-scheme" type="text/css">
   .ColorScheme-Text { color:#eeeeec; } .ColorScheme-Highlight { color:#367bf0; } .ColorScheme-NeutralText { color:#ffcc44; } .ColorScheme-PositiveText { color:#3db47e; } .ColorScheme-NegativeText { color:#dd4747; }
  </style>
 </defs>
 <path style="fill:currentColor" class="ColorScheme-Text" d="M 13.029297 1.03125 C 12.934297 1.03214 12.873047 1.0625 12.873047 1.0625 L 1.0625 3.125 C 0.0777 3.29865 0.25 4.28125 0.25 4.28125 L 0.71875 7 L 3.8125 7 L 4.9375 5.0625 L 7.375 7 L 9.6875 7 L 10.59375 5.78125 L 12.34375 7 L 14.9375 7 L 14.03125 1.875 C 13.90102 1.1364 13.31637 1.02858 13.03125 1.03125 L 13.029297 1.03125 z M 1 8 L 1 9 L 2 9 L 2 8 L 1 8 z M 3 8 L 3 9 L 4 9 L 4 8 L 3 8 z M 5 8 L 5 9 L 6 9 L 6 8 L 5 8 z M 7 8 L 7 9 L 8 9 L 8 8 L 7 8 z M 9 8 L 9 9 L 10 9 L 10 8 L 9 8 z M 11 8 L 11 9 L 12 9 L 12 8 L 11 8 z M 13 8 L 13 9 L 14 9 L 14 8 L 13 8 z M 15 8 L 15 9 L 16 9 L 16 8 L 15 8 z M 1.25 10 L 1.96875 14.15625 C 2.14239 15.14105 3.125 14.96875 3.125 14.96875 L 14.935547 12.875 C 14.935547 12.875 15.921687 12.70351 15.748047 11.71875 L 15.4375 10 L 13.4375 10 L 13.625 11.0625 L 3.78125 12.8125 L 3.28125 10 L 1.25 10 z" transform="translate(4 4)"/>
</svg>
